dist/svgs/unicons/line/th.svg

<svg xmlns="http://www.w3.org/2000/svg" viewBox="0 0 24 24"><path d="M21 2H3a1 1 0 00-1 1v18a1 1 0 001 1h18a1 1 0 001-1V3a1 1 0 00-1-1zM11 20H4v-7h7zm0-9H4V4h7zm9 9h-7v-7h7zm0-9h-7V4h7z"/></svg>

<svg xmlns="http://www.w3.org/2000/svg" viewBox="0 0 24 24"><path d="M21,2H3A1,1,0,0,0,2,3V21a1,1,0,0,0,1,1H21a1,1,0,0,0,1-1V3A1,1,0,0,0,21,2ZM11,20H4V13h7Zm0-9H4V4h7Zm9,9H13V13h7Zm0-9H13V4h7Z"/></svg>
